X:1
T:[ID 1-26a]
T:[ID 1-26a]
T:Bezeichnung standardisiert: Menuet [mit Trio] Menuet [mit Trio]
T:Urheber unbekannt Erstbeleg: vor 1767 (Datum in der schriftlichen Quelle) Datum in der hier transkribierten schriftlichen Quelle: 1776 - 1791
C:Urheber unbekannt
C:Erstbeleg: vor 1767 (Datum in der schriftlichen Quelle)
C:Datum in der hier transkribierten schriftlichen Quelle: 1776 - 1791
L:1/8
M:3/4
K:D
V:1 treble 
V:1
 D2 D2 D2 | D2 (dc) d2 | D2 D2 D2 | D2 (fe) f2 | (ec)(cA)(AB) | cAce ae | (3fed c2 B2 |{B} A6 :: %8
 A2 a2 a2 | (ag) g4 | A2 g2 g2 | gf f4 | D2 D2 D2 | FDFA dA | (3BAG F2 E2 |{E} D6 :| %16
[M:3/4]"^Trio" !fermata!G z A z B z | G z A z B z | c4 AF | G2 BG D2 | G z A z B z | G z A z B z | %22
 c4 AF | G2 G,4 :: d4 BG | GFAF D2 | d4 BG | GFAF D2 | G z A z B z | G z A z B z | c4 AF | %31
 G2 G,4"^DaCapo Men" :| %32

